X:5110
T:Pig Town Fling
O:england
M:2/4
I:speed 250
I:part 1
K:G
|: G2ge d2ed | b2ge dBAB | G2ge d2ed | BAGB AGED |
G2ge d2ed | B2ge dBAB | G2ge d2ed | BGAB G4:|
|:B2e2 e3g | fgaf gfed | B2e2 e3g | fgaf g3e |
B2e2 e3g | fgaf gfed | efga bagf | gafd e4:|
I:final
|:G2ec B2D2 | G2ec BGFD | G2ec B2D2 | G2E2 D4|
G2ec B2D2 | G2ec Bgfd | G2ec B2A2 | G2F2 G4:|
|:G2B2 B3e | ^d2B2 e2cB | G2B2 B3e | ^d2B2 e3B |
G2B2 B3e | ^d2B2 e2cB | GAB2 ^d2^d2 | ecBA G4:|  M:4/4l


